Resources/app/storefront/src/assets/icon-pack/cinema/ic-star.svg

<?xml version="1.0" encoding="UTF-8"?>
<svg width="17px" height="15px" viewBox="0 0 17 15" version="1.1" xmlns="http://www.w3.org/2000/svg" xmlns:xlink="http://www.w3.org/1999/xlink">
    <title>14751130-0072-4894-81FC-3AF941AB808B@1x</title>
    <defs>
        <path d="M8.25,-3.46389584e-14 L10.6746142,4.9128049 L16.0962163,5.7006098 L12.1731081,9.5246951 L13.0992283,14.9243902 L8.25,12.375 L3.40077167,14.9243902 L4.32689187,9.5246951 L0.403783741,5.7006098 L5.82538583,4.9128049 L8.25,-3.46389584e-14 Z M10.0105487,5.82681266 L8.25,2.259 L6.48945135,5.82681266 L2.552,6.399 L5.40137244,9.1755752 L4.728,13.096 L8.25,11.2452243 L11.771,13.096 L11.0986276,9.1755752 L13.947,6.399 L10.0105487,5.82681266 Z" id="path-1"></path>
    </defs>
    <g id="Lizenzen-&amp;-Assets-✅" stroke="none" stroke-width="1" fill="none" fill-rule="evenodd">
        <g id="Icons" transform="translate(-247.000000, -750.000000)">
            <g id="Fills/Grey-900" transform="translate(247.000000, 750.000000)">
                <mask id="mask-2" fill="white">
                    <use xlink:href="#path-1"></use>
                </mask>
                <use id="Mask" fill="#1F2E3D" fill-rule="nonzero" xlink:href="#path-1"></use>
                <g id="Group" mask="url(#mask-2)" fill="#071C31">
                    <g id="Fills/Grey-900">
                        <rect id="Rectangle" x="0" y="0" width="16" height="17"></rect>
                    </g>
                </g>
            </g>
        </g>
    </g>
</svg>

<?xml version="1.0" encoding="UTF-8"?><svg width="17" height="15" xmlns="http://www.w3.org/2000/svg" xmlns:xlink="http://www.w3.org/1999/xlink"><defs><path d="m8.25 0 2.42 4.91 5.43.8-3.93 3.81.93 5.4-4.85-2.54-4.85 2.54.93-5.4L.4 5.7l5.43-.79L8.25 0Zm1.76 5.83L8.25 2.26 6.49 5.83l-3.94.57L5.4 9.18l-.67 3.92 3.52-1.85 3.52 1.85-.67-3.92 2.85-2.78L10 5.83Z" id="a"/></defs><g fill="none" fill-rule="evenodd"><mask id="b" fill="#fff"><use xlink:href="#a"/></mask><use fill="#1F2E3D" fill-rule="nonzero" xlink:href="#a"/><g mask="url(#b)" fill="#071C31"><path d="M0 0h16v17H0z"/></g></g></svg>
